Numix/16/status/qtox-online.svg

<?xml version="1.0" encoding="UTF-8" standalone="no"?>
<svg
   xmlns:dc="http://purl.org/dc/elements/1.1/"
   xmlns:cc="http://creativecommons.org/ns#"
   xmlns:rdf="http://www.w3.org/1999/02/22-rdf-syntax-ns#"
   xmlns:svg="http://www.w3.org/2000/svg"
   xmlns="http://www.w3.org/2000/svg"
   xml:space="preserve"
   enable-background="new 0 0 90 109"
   viewBox="-1 -1 16.355555 16.293578"
   height="16"
   width="16"
   y="0px"
   x="0px"
   id="Layer_1"
   version="1.1"><metadata
     id="metadata11"><rdf:RDF><cc:Work
         rdf:about=""><dc:format>image/svg+xml</dc:format><dc:type
           rdf:resource="http://purl.org/dc/dcmitype/StillImage" /><dc:title></dc:title></cc:Work></rdf:RDF></metadata><defs
     id="defs9" /><path
     id="path4149"
     transform="matrix(1.0222222,0,0,1.0222221,-1,-1.0309881)"
     d="M 8 1 C 5.7908609 1 4 2.7908609 4 5 L 4 7 L 3 7 C 2.4477151 6.9999997 1.9999997 7.4477151 2 8 L 2 14 C 1.9999997 14.552285 2.4477151 15 3 15 L 13 15 C 13.552285 15 14 14.552285 14 14 L 14 8 C 14 7.4477151 13.552285 6.9999997 13 7 L 12 7 L 12 5 C 12 2.7908609 10.209139 1 8 1 z M 8 3 C 9.1045696 3 10 3.8954304 10 5 C 10 5.4712431 9.8987859 5.841975 9.765625 6.1074219 C 9.6324641 6.3728688 9.3370283 6.7268699 9 7 C 8.6705201 7.2670129 8.0000008 7.6074219 8 7.6074219 C 8 7.6074219 8.305608 7.2362559 8.4296875 6.9511719 C 8.2886442 6.9829321 8.1445748 6.9999192 8 7 C 6.8954307 7.0006172 5.9999999 6.104569 6 5 C 5.9999999 3.8954304 6.8954305 3 8 3 z M 8 8 A 3.0000001 3.0000001 0 0 1 11 11 A 3.0000001 3.0000001 0 0 1 8 14 A 3.0000001 3.0000001 0 0 1 5 11 A 3.0000001 3.0000001 0 0 1 8 8 z "
     style="opacity:1;fill:#ececec;fill-opacity:1;stroke-width:0.70866144;stroke-linecap:round;stroke-linejoin:round;stroke-miterlimit:4;stroke-dasharray:none;stroke-dashoffset:0" /><path
     d=""
     cx="11.266666"
     cy="14.79796"
     rx="2.5555553"
     ry="2.5555549"
     style="opacity:1;fill:#ffffff;fill-opacity:1"
     id="ellipse3338" /></svg>

<svg xmlns="http://www.w3.org/2000/svg" viewBox="-1 -1 16.355555 16.293578" height="16" width="16" style="enable-background:new 0 0 90 109">
 <path transform="matrix(1.0222222,0,0,1.0222221,-1,-1.0309881)" d="m 8 1 c -2.209 0 -4 1.791 -4 4 l 0 2 l -1 0 c -0.552 0 -1 0.448 -1 1 l 0 6 c 0 0.552 0.448 1 1 1 l 10 0 c 0.552 0 1 -0.448 1 -1 l 0 -6 c 0 -0.552 -0.448 -1 -1 -1 l -1 0 l 0 -2 c 0 -2.209 -1.791 -4 -4 -4 z m 0 2 c 1.105 0 2 0.895 2 2 c 0 0.471 -0.101 0.842 -0.234 1.107 c -0.133 0.265 -0.429 0.619 -0.766 0.893 c -0.329 0.267 -1 0.607 -1 0.607 c 0 0 0.306 -0.371 0.43 -0.656 c -0.141 0.032 -0.285 0.049 -0.43 0.049 c -1.105 0.001 -2 -0.895 -2 -2 c 0 -1.105 0.895 -2 2 -2 z m 0 5 a 3 3 0 0 1 3 3 a 3 3 0 0 1 -3 3 a 3 3 0 0 1 -3 -3 a 3 3 0 0 1 3 -3 z" style="stroke-dasharray:none;fill:#ececec;opacity:1;stroke-miterlimit:4;fill-opacity:1;stroke-linecap:round;stroke-linejoin:round;stroke-width:0.709;stroke-dashoffset:0"/>
</svg>
